build/img/icon__bedroom.svg

<svg width="36" height="36" viewBox="0 0 36 36" fill="none" xmlns="http://www.w3.org/2000/svg">
<g opacity="0.4">
<path d="M33.3542 21.8565V15.9168C33.3542 14.6369 32.3129 13.5956 31.0329 13.5956H10.3822C10.0902 13.5956 9.85352 13.8322 9.85352 14.1243C9.85352 14.4163 10.0902 14.653 10.3822 14.653H31.0329C31.7299 14.653 32.2968 15.2199 32.2968 15.9168V21.8379H29.9233V20.6267C29.9233 19.3553 28.8889 18.3209 27.6174 18.3209H22.0535C20.7821 18.3209 19.7477 19.3553 19.7477 20.6267V21.8379H16.2523V20.6267C16.2523 19.3553 15.2179 18.3209 13.9465 18.3209H8.38256C7.1111 18.3209 6.07672 19.3553 6.07672 20.6267V21.8379H3.7032V15.9168C3.7032 15.2199 4.27013 14.653 4.96705 14.653H8.2673C8.55936 14.653 8.79602 14.4163 8.79602 14.1243C8.79602 13.8322 8.55936 13.5956 8.2673 13.5956H4.96705C3.68713 13.5956 2.64577 14.6369 2.64577 15.9168V21.8565C1.15986 22.0205 0 23.2831 0 24.8121V32.7614C0 33.0535 0.236724 33.2901 0.528717 33.2901H8.2673C8.55936 33.2901 8.79602 33.0535 8.79602 32.7614C8.79602 32.4694 8.55936 32.2327 8.2673 32.2327H1.05743V26.7206H28.0721C28.3642 26.7206 28.6008 26.4839 28.6008 26.1919C28.6008 25.8998 28.3642 25.6631 28.0721 25.6631H1.05743V24.8121C1.05743 23.7553 1.9172 22.8955 2.97407 22.8955H33.0258C34.0827 22.8955 34.9426 23.7553 34.9426 24.8121V25.6631H30.187C29.8949 25.6631 29.6583 25.8998 29.6583 26.1919C29.6583 26.4839 29.8949 26.7206 30.187 26.7206H34.9426V32.2327H10.3822C10.0902 32.2327 9.85352 32.4694 9.85352 32.7614C9.85352 33.0535 10.0902 33.2901 10.3822 33.2901H35.4713C35.7633 33.2901 36 33.0535 36 32.7614V24.8121C36 23.2831 34.8401 22.0205 33.3542 21.8565ZM20.8052 20.6268C20.8052 19.9384 21.3651 19.3784 22.0535 19.3784H27.6174C28.3058 19.3784 28.8658 19.9384 28.8658 20.6268V21.838H20.8052V20.6268ZM7.13415 20.6268C7.13415 19.9384 7.69417 19.3784 8.38256 19.3784H13.9465C14.6349 19.3784 15.1948 19.9384 15.1948 20.6268V21.838H7.13415V20.6268Z" fill="#333333"/>
<path d="M13.7761 11.8921H16.6076C16.8997 11.8921 17.1363 11.6555 17.1363 11.3634C17.1363 11.0713 16.8997 10.8347 16.6076 10.8347H14.9779L16.9974 8.63134C17.302 8.29881 17.0576 7.74542 16.6076 7.74542H14.0421C13.75 7.74542 13.5134 7.98208 13.5134 8.27414C13.5134 8.5662 13.75 8.80286 14.0421 8.80286H15.4058L13.3863 11.0062C13.0816 11.3387 13.3259 11.8921 13.7761 11.8921Z" fill="#333333"/>
<path d="M19.9177 8.74568H24.4805C24.7726 8.74568 25.0093 8.50903 25.0093 8.21696C25.0093 7.9249 24.7726 7.68824 24.4805 7.68824H21.1195L24.8703 3.59583C25.1751 3.26331 24.9306 2.70992 24.4805 2.70992H20.1848C19.8967 2.70992 19.6561 2.95052 19.6561 3.23863C19.6561 3.52675 19.8967 3.76735 20.1848 3.76735H23.2787L19.5279 7.85976C19.2231 8.19222 19.4677 8.74568 19.9177 8.74568Z" fill="#333333"/>
</g>
</svg>

<svg width="36" height="36" fill="none" xmlns="http://www.w3.org/2000/svg"><path d="M33.354 21.857v-5.94a2.324 2.324 0 00-2.321-2.321h-20.65a.529.529 0 100 1.057h20.65c.697 0 1.264.567 1.264 1.264v5.92h-2.374v-1.21a2.308 2.308 0 00-2.306-2.306h-5.564a2.308 2.308 0 00-2.305 2.306v1.21h-3.496v-1.21a2.308 2.308 0 00-2.305-2.306H8.383a2.308 2.308 0 00-2.306 2.306v1.21H3.703v-5.92c0-.697.567-1.264 1.264-1.264h3.3a.529.529 0 100-1.057h-3.3a2.324 2.324 0 00-2.321 2.32v5.94A2.978 2.978 0 000 24.813v7.95c0 .291.237.528.529.528h7.738a.529.529 0 100-1.057h-7.21V26.72h27.015a.529.529 0 100-1.058H1.057v-.85a1.92 1.92 0 011.917-1.918h30.052a1.92 1.92 0 011.917 1.917v.851h-4.756a.529.529 0 100 1.058h4.756v5.512h-24.56a.529.529 0 100 1.057H35.47a.529.529 0 00.529-.529v-7.949a2.978 2.978 0 00-2.646-2.956zm-12.549-1.23c0-.689.56-1.249 1.248-1.249h5.564c.689 0 1.249.56 1.249 1.249v1.211h-8.06v-1.211zm-13.67 0c0-.689.56-1.249 1.248-1.249h5.564c.688 0 1.248.56 1.248 1.249v1.211h-8.06v-1.211zm6.641-8.735h2.832a.529.529 0 100-1.057h-1.63l2.02-2.204c.304-.332.06-.886-.39-.886h-2.566a.529.529 0 100 1.058h1.364l-2.02 2.203c-.304.333-.06.886.39.886zm6.142-3.146h4.563a.529.529 0 100-1.058h-3.362l3.751-4.092c.305-.333.06-.886-.39-.886h-4.295a.534.534 0 00-.529.529c0 .288.24.528.529.528h3.094L19.528 7.86c-.305.332-.06.886.39.886z" opacity=".4" fill="#333"/></svg>
